X:1
T:Ädla skuggor, vördade fäder
T:Ädla skuggor, vördade fäder
T:Hymn ur operan "Gustaf Wasa"
T: Johann Gottlieb Naumann
C:Johann Gottlieb Naumann
%%score [ 1 2 3 4 ]
L:1/8
Q:1/4=72
M:4/4
K:C
V:1 treble nm="Soprano"
V:2 treble nm="Alto"
V:3 treble-8 nm="Tenor"
V:4 bass nm="Bass"
V:1
"^Andante"!mf! C2 C2 | D2 D z!<(! E2 E G!<)! |!>(! F2 E2!>)! !>!c2 !>!B2 | !>!A2 G c F2 E2 | %4
w: Äd- la|skug- gor, vör- da- de|fä- der, Sveri- ges|hjäl- tar och rid- ders-|
 D2 z2 C2 C2 | D2 D2!<(! E2 E G!<)! |!>(! F2 E2!>)! !>!c2 !>!B2 | !>!A2 G A D3 F | (F2 E2) F2 E2 | %9
w: män! Om än-|nu dess säll- het er|glä- der, gi- ven|fri- he- ten liv- i-|gen, _ gi- ven|
 A2 F D E2 G2 | C4!fine! ||!p! D2 D2 | _E2 E2!<(! ^F2 F F!<)! | G2 G2"^cresc." B2 B2 | %14
w: fri- he- ten liv i-|gen.|Sko- la|ed- ra hel- ga- de|gra- var tram- pas|
 c2 c2!>(! _e2 c c!>)! | B2 G2 _B2 z B | A2 A A G3 G | ^F2 z2 =F2 F2 | E2!<(! E2 (EA)!<)! c A | %19
w: av ty- ran- ner och|sla- var? Nej! må|träl- do- mens blot- ta|namn ed- ra|vre- da vål- * na- der|
!>(! ^G2 E2!>)!!p! A3 A | A2"^cresc." A2 A2 A A | A2 A2 B3 D |!<(! (CE) A!<)! c e3!>(! E | %23
w: väc- ka, och er|arm sig häm- nan- de|sträc- ka ur den|e- * vi- ga nat- tens|
 ^D4!>)! !>!B3 =D |!<(! (CE) A c!<)!!>(! e3 E!>)! | A4!D.C.! |] %26
w: famn, ur den|e- * vi- ga nat- tens|famn.|
V:2
!mf! C2 C2 | B,2 B, z!<(! C2 C E!<)! |!>(! D2 C2!>)! !>!C2 !>!C2 | !>!C2 C C B,2 C2 | %4
w: Äd- la|skug- gor, vör- da- de|fä- der, Sveri- ges|hjäl- tar och rid- ders-|
 B,2 z2 C2 C2 | B,2 B,2!<(! C2 C E!<)! |!>(! D2 C2!>)! !>!C2 !>!C2 | !>!C2 C C C2 B,2 | %8
w: män! Om än-|nu dess säll- het er|glä- der, gi- ven|fri- he- ten liv i-|
 (D2 C2) C2 C2 | C2 C C C2 B,2 | C4 ||!p! B,2 B,2 | C2 C2!<(! C2 _E E!<)! | D2 D2"^cresc." =F2 F2 | %14
w: gen, _ gi- ven|fri- he- ten liv i-|gen.|Sko- la|ed- ra hel- ga- de|gra- var tram- pas|
 _E2 E2!>(! G2 ^F F!>)! | G2 G2 G2 z G | =F2 F F E3 E | _E2 z2 D2 D2 | D2!<(! D2 C2!<)! E E | %19
w: av ty- ran- ner och|sla- var? Nej! må|träl- do- mens blot- ta|namn ed- ra|vre- da vål- na- der|
!>(! E2 B,2!>)!!p! A,3 A, | B,2"^cresc." B,2 ^C2 C C | D2 D2 D3 B, |!<(! C2 E!<)! E C2!>(! (B,E) | %23
w: väc- ka, och er|arm sig häm- nan- de|sträc- ka ur den|e- vi- ga nat- tens _|
 ^D4!>)! !>!=D3 B, |!<(! C2 E E!<)!!>(! C2 D2!>)! | C4 |] %26
w: famn, ur den|e- vi- ga nat- tens|famn.|
V:3
!mf! E2 E2 | G2 G z!<(! G2 G G!<)! |!>(! G2 G2!>)! !>!A2 !>!G2 | !>!F2 G G G2 G2 | G2 z2 E2 E2 | %5
w: Äd- la|skug- gor, vör- da- de|fä- der, Sveri- ges|hjäl- tar och rid- ders-|män! Om än-|
 G2 G2!<(! G2 G G!<)! |!>(! G2 G2!>)! !>!A2 !>!G2 | !>!F2 E F G2 G2 | A4 c2 c2 | c2 A A G2 =F2 | %10
w: nu dess säll- het er|glä- der, gi- ven|fri- he- ten liv i-|gen, gi- ven|fri- he- ten liv i-|
 E4 ||!p! G2 G2 | G2 G2!<(! A2 c c!<)! | B2 B2"^cresc." d2 d2 | c2 c2!>(! c2 _e e!>)! | %15
w: gen.|Sko- la|ed- ra hel- ga- de|gra- var tram- pas|av ty- ran- ner och|
 d2 B2 c2 z c | c2 c c c3 c | c2 z2 d2 B2 | B2!<(! G2 A2!<)! A A |!>(! B2 ^G2!>)!!p! E3 E | %20
w: sla- var? Nej! må|träl- do- mens blot- ta|namn ed- ra|vre- da vål- na- der|väc- ka, och er|
 F2"^cresc." F2 =G2 G G | A2 A2 ^G3 G |!<(! A2 c!<)! A A2!>(! ^G2 | A4!>)! !>!^G3 G | %24
w: arm sig häm- nan- de|sträc- ka ur den|e- vi- ga nat- tens|famn, ur den|
!<(! A2 c A!<)!!>(! A2 ^G2!>)! | E4 |] %26
w: e- vi- ga nat- tens|famn.|
V:4
!mf! C,2 C,2 | G,,2 G,, z!<(! C,2 C, C,!<)! |!>(! B,,2 C,2!>)! !>!A,2 !>!G,2 | %3
w: Äd- la|skug- gor, vör- da- de|fä- der, Sveri- ges|
 !>!F,2 E, E, D,2 C,2 | G,,2 z2 C,2 C,2 | G,,2 G,,2!<(! C,2 C, C,!<)! | %6
w: hjäl- tar och rid- ders-|män! Om än-|nu dess säll- het er|
!>(! B,,2 C,2!>)! !>!A,2 !>!G,2 | !>!F,2 E, F, G,2 G,2 | A,4 A,2 G,2 | F,2 F, ^F, G,2 G,,2 | C,4 || %11
w: glä- der, gi- ven|fri- he- ten liv i-|gen, gi- ven|fri- he- ten liv i-|gen.|
!p! G,2 G,2 | G,2 G,2!<(! G,2 G, G,!<)! | G,2 G,2"^cresc." G,2 G,2 | G,2 G,2!>(! G,2 G, G,!>)! | %15
w: Sko- la|ed- ra hel- ga- de|gra- var tram- pas|av ty- ran- ner och|
 G,2 G,2 E,2 z E, | F,2 F, F, G,3 G, | A,2 z2 B,2 G,2 | ^G,2!<(! E,2 A,2!<)! A,, C, | %19
w: sla- var? Nej! må|träl- do- mens blot- ta|namn ed- ra|vre- da vål- na- der|
!>(! E,2 E,2!>)!!p! C,3 C, | D,2"^cresc." D,2 E,2 E, E, | F,2 F,2 E,3 E, | %22
w: väc- ka, och er|arm sig häm- nan- de|sträc- ka ur den|
!<(! A,2 C!<)! A, E,2!>(! E,2 | F,4!>)! !>!E,3 E, |!<(! A,2 C A,!<)!!>(! E,2 E,2!>)! | A,,4 |] %26
w: e- vi- ga nat- tens|famn, ur den|e- vi- ga nat- tens|famn.|

